symbols/web/record_voice_over/materialsymbolsoutlined/record_voice_over_wght200grad200fill1_20px.svg

<svg xmlns="http://www.w3.org/2000/svg" height="20" width="20"><path d="m16.479 11.938-1.187-1.188q.916-.854 1.448-1.969.531-1.114.531-2.406t-.531-2.437q-.532-1.146-1.448-2L16.479.812q1.125 1.063 1.844 2.49.719 1.427.719 3.073t-.719 3.073q-.719 1.427-1.844 2.49ZM13.75 9.229l-1.167-1.167q.375-.312.584-.75.208-.437.208-.937t-.208-.937q-.209-.438-.584-.75l1.167-1.167q.562.541.927 1.271.365.729.365 1.583 0 .833-.365 1.573t-.927 1.281Zm-6.5.104q-1.271 0-2.115-.833-.843-.833-.843-2.125t.843-2.125q.844-.833 2.115-.833 1.292 0 2.125.833t.833 2.125q0 1.292-.833 2.125t-2.125.833ZM.958 16.375v-1.75q0-.625.344-1.125t.969-.771q1.062-.479 2.385-.812 1.323-.334 2.594-.334t2.604.334q1.334.333 2.396.812.625.271.958.771.334.5.334 1.125v1.75Z"/></svg>

<svg xmlns="http://www.w3.org/2000/svg" height="20" width="20"><path d="M16.479 11.938 15.292 10.75Q16.208 9.896 16.74 8.781Q17.271 7.667 17.271 6.375Q17.271 5.083 16.74 3.938Q16.208 2.792 15.292 1.938L16.479 0.812Q17.604 1.875 18.323 3.302Q19.042 4.729 19.042 6.375Q19.042 8.021 18.323 9.448Q17.604 10.875 16.479 11.938ZM13.75 9.229 12.583 8.062Q12.958 7.75 13.167 7.312Q13.375 6.875 13.375 6.375Q13.375 5.875 13.167 5.438Q12.958 5 12.583 4.688L13.75 3.521Q14.312 4.062 14.677 4.792Q15.042 5.521 15.042 6.375Q15.042 7.208 14.677 7.948Q14.312 8.688 13.75 9.229ZM7.25 9.333Q5.979 9.333 5.135 8.5Q4.292 7.667 4.292 6.375Q4.292 5.083 5.135 4.25Q5.979 3.417 7.25 3.417Q8.542 3.417 9.375 4.25Q10.208 5.083 10.208 6.375Q10.208 7.667 9.375 8.5Q8.542 9.333 7.25 9.333ZM0.958 16.375V14.625Q0.958 14 1.302 13.5Q1.646 13 2.271 12.729Q3.333 12.25 4.656 11.917Q5.979 11.583 7.25 11.583Q8.521 11.583 9.854 11.917Q11.188 12.25 12.25 12.729Q12.875 13 13.208 13.5Q13.542 14 13.542 14.625V16.375Z"/></svg>
